!!!!SEGMENT: pl-cz--i-155--003-001_anonim-partita-es-adagio.krn
!!!id: 18xx:2502
!!!COM: Anonim
!!!OTL: Partita Es - Adagio
!!!PDT:
!!!SMS-siglum: PL-CZ
!!!SMS-shelfmark: I-155
!!!NIFC-rismID: 1001012510
!!!URL-scan: http://repozytorium.nifc.pl/skany/pl-cz-nut--i-155
!!!ONB-nifc: UWAGA: Parthia 3 (003), części: 1. Adagio, 2. Allegro, 3. Menuetto, 4. Poloneser, 5. Finale. Uwaga: 5 partii
!!!SMS-variant:
!!!SMS-altvar:
**kern	**dynam	**kern	**dynam	**kern	**dynam	**kern	**dynam	**kern	**dynam
*part5	*part5	*part4	*part4	*part3	*part3	*part2	*part2	*part1	*part1
*staff5	*	*staff4	*	*staff3	*	*staff2	*	*staff1	*
*I"Corno Secondo	*	*I"Corno Primo.	*	*I"Fagotto	*	*I"Clarinetto Secondo	*	*I"Clainetto Primo	*
*I'cor 2 in E|b	*	*I'cor 1 in E|b	*	*I'fag	*	*I'cl 2	*	*I'cl 1	*
*clefG2	*	*clefG2	*	*clefF4	*	*clefG2	*	*clefG2	*
*ITrd5c9	*	*ITrd5c9	*	*	*	*ITrd1c2	*	*ITrd1c2	*
*>[A,A,B,B]	*	*>[A,A,B,B]	*	*>[A,A,B,B]	*	*>[A,A,B,B]	*	*>[A,A,B,B]	*
*k[b-e-a-]	*	*k[b-e-a-]	*	*k[b-e-a-]	*	*k[b-e-a-]	*	*k[b-e-a-]	*
*M2/2	*	*M2/2	*	*M2/2	*	*M2/2	*	*M2/2	*
*met(c|)	*	*met(c|)	*	*met(c|)	*	*met(c|)	*	*met(c|)	*
*all\right	*	*all\right	*	*all\right	*	*all\right	*	*all\right	*
*>A	*	*>A	*	*>A	*	*>A	*	*>A	*
!	!	!	!	!	!	!LO:TX:i:a:t=Adagio	!	!	!
!LO:TX:a:i:t=Parthia Adagio\n3tia	!	!LO:TX:a:i:t=Parthia 3tia Adagio	!	!LO:TX:a:i:t=Parthia Adagio\n3tia	!	!LO:TX:a:i:t=Parthia 3tia	!	!LO:TX:a:i:t=Parthia 3	!
4r	.	4r	.	4r	.	4r	.	4b-\	.
=1	=1	=1	=1	=1	=1	=1	=1	=1	=1
4E-;/	.	4e-;\	.	4EE-;/	.	4g;</	.	4ee-;\	.
8r	.	8r	.	8r	.	8r	.	8r	.
16r	.	16r	.	16r	.	16r	.	16r	.
16G/	.	16e-\	.	16E-\	.	16g/	.	16ee-\	.
4G/	.	4e-\	.	4EE-;/	.	4g;</	.	4ee-;\	.
4r	.	8r	.	4r	.	8r	.	8r	.
.	.	8r	.	.	.	16r	.	16r	.
.	.	.	.	.	.	16b-\	.	16gg\	.
=2	=2	=2	=2	=2	=2	=2	=2	=2	=2
1r	.	1r	.	1r	.	4b-\	.	4gg\	.
.	.	.	.	.	.	4g\	.	4ee-\	.
.	.	.	.	.	.	4a-\	.	4ff\	.
.	.	.	.	.	.	4g\	.	4ee-\	.
=3	=3	=3	=3	=3	=3	=3	=3	=3	=3
2r	.	2r	.	2r	.	4f/	.	4dd\	.
.	.	.	.	.	.	4r	.	4r	.
4B-;/	.	4f;\	.	4BB-;/	.	4dd;\	.	4bb-;\	.
8r	.	8r	.	8r	.	8r	.	8r	.
16r	.	16r	.	16r	.	16r	.	16r	.
!	!	!	!	!	!	!LO:LB:g=original	!	!	!
16B-/	.	16f\	.	16BB-/	.	16dd\	.	16bb-\	.
=4	=4	=4	=4	=4	=4	=4	=4	=4	=4
4B-;/	.	4f;\	.	4BBB-;/	.	4dd;\	.	4bb-;\	.
8r	.	8r	.	4r	.	8r	.	8r	.
16r	.	16r	.	.	.	16r	.	16r	.
16f\	.	16a-\	.	.	.	16ff\	.	16aa-\	.
!	!	!LO:LB:g=original	!	!	!	!	!	!	!
4f\	.	4a-\	.	2r	.	4ff\	.	4aa-\	.
4e-\	.	4g\	.	.	.	4ee-\	.	4gg\	.
!	!	!	!	!LO:LB:g=original	!	!	!	!	!
=5	=5	=5	=5	=5	=5	=5	=5	=5	=5
4f\	.	4a-\	.	2r	.	4ff\	.	4aa-\	.
4d\	.	4f\	.	.	.	4dd\	.	4ff\	.
4e-\	.	4g\	.	4r	.	4ee-\	.	4gg\	.
!LO:LB:g=original	!	!	!	!	!	!	!	!	!
8r	.	8r	.	8r	.	8r	f	8r	.
!	!	!	!	!	!	!	!	!LO:LB:g=original	!
16r	.	16r	.	16r	.	16r	.	16r	.
!	!	!	!	!	!	!	!	!	!LO:DY:t=fo&colon;
16BB-/	.	16B-/	.	16BB-/	.	16B-/	.	16b-\	f
=6	=6	=6	=6	=6	=6	=6	=6	=6	=6
8.E-/L	.	8.e-\L	.	8.E-\L	.	8.e-/L	.	8.ee-\L	.
16BB-/K	.	16B-\K	.	16BB-\K	.	16B-/K	.	16b-\K	.
8.G/	.	8.g\	.	8.G\	.	8.g/	.	8.gg\	.
16E-/Jk	.	16e-\Jk	.	16E-\Jk	.	16e-/Jk	.	16ee-\Jk	.
8.E-/L	.	8.e-\L	.	8.E-\L	.	8.e-/L	.	8.ee-\L	.
16B-/K	.	16b-\K	.	16B-\K	.	16b-/K	.	16bb-\K	.
8.G/	.	8.g\	.	8.G\	.	8.g/	.	8.gg\	.
16E-/Jk	.	16e-\Jk	.	16E-\Jk	.	16e-/Jk	.	16ee-\Jk	.
=7	=7	=7	=7	=7	=7	=7	=7	=7	=7
!	!	!	!	!LO:TX:t=P:problem:mixed beam	!	!	!	!	!
4BB-/	.	4f\	.	8BB-/L	.	4d/	.	4dd\	.
.	.	.	.	8B-\	.	.	.	.	.
4B-/	.	4f\	.	8F\	.	4b-\	.	4bb-\	.
.	.	.	.	8D\J	.	.	.	.	.
4BB-/	.	4f\	.	4BB-/	.	4b-\	.	4bb-\	.
4r	.	4r	.	4r	.	4r	.	4r	.
=8	=8	=8	=8	=8	=8	=8	=8	=8	=8
*	*	*	*	*2\right	*	*	*	*	*
*	*	*	*	*tremolo	*	*tremolo	*	*	*
!	!	!	!	!	!LO:DY:rj	!	!LO:DY:rj	!	!LO:DY:rj
00r	.	00r	.	8B-\L	p	8d/L	p	4ff\	p
.	.	.	.	8d\	.	8f/	.	.	.
.	.	.	.	8B-\	.	8d/	.	4ff\	.
.	.	.	.	8d\J	.	8f/J	.	.	.
.	.	.	.	8B-\L	.	8d/L	.	8ff\L	.
.	.	.	.	8d\	.	8f/	.	16gg\L	.
.	.	.	.	.	.	.	.	16ff\JJ	.
.	.	.	.	8B-\	.	8d/	.	16ee-\LL	.
.	.	.	.	.	.	.	.	16dd\	.
.	.	.	.	8d\J	.	8f/J	.	16cc\	.
.	.	.	.	.	.	.	.	16b-\JJ	.
!	!	!	!	!	!	!LO:LB:g=original	!	!	!
=9	=9	=9	=9	=9	=9	=9	=9	=9	=9
.	.	.	.	8B-\L	.	8d/L	.	4cc\	.
.	.	.	.	8e-\	.	8f/	.	.	.
.	.	.	.	8B-\	.	8d/	.	4b-\	.
.	.	.	.	8e-\J	.	8f/J	.	.	.
.	.	.	.	8B-\L	.	8d/L	.	16b-\LL	.
.	.	.	.	.	.	.	.	16cc\	.
.	.	.	.	8e-\	.	8f/	.	16dd\	.
.	.	.	.	.	.	.	.	16ee-\JJ	.
.	.	.	.	8B-\	.	8d/	.	16ff\LL	.
.	.	.	.	.	.	.	.	16gg\	.
.	.	.	.	8e-\J	.	8f/J	.	16aa\	.
.	.	.	.	.	.	.	.	16bb-\JJ	.
!	!	!	!	!LO:LB:g=original	!	!	!	!	!
=10	=10	=10	=10	=10	=10	=10	=10	=10	=10
.	.	.	.	8B-\L	.	8e-/L	.	8bb-\L	.
.	.	.	.	8e-\	.	8g/	.	8gg\J	.
!	!	!	!	!	!	!	!	!LO:LB:g=original	!
.	.	.	.	8B-\	.	8e-/	.	4gg\	.
.	.	.	.	8e-\J	.	8g/J	.	.	.
.	.	.	.	8B-\L	.	8e-/L	.	16gg\LL	.
.	.	.	.	.	.	.	.	16aa-\	.
.	.	.	.	8e-\	.	8g/	.	16bb-\	.
.	.	.	.	.	.	.	.	16aa-\JJ	.
.	.	.	.	8B-\	.	8e-/	.	16ccc\LL	.
.	.	.	.	.	.	.	.	16bb-\	.
.	.	.	.	8e-\J	.	8g/J	.	16aa-\	.
.	.	.	.	.	.	.	.	16gg\JJ	.
=11	=11	=11	=11	=11	=11	=11	=11	=11	=11
.	.	.	.	8B-\L	.	8d/L	.	8gg\L	.
.	.	.	.	8d\	.	8f/	.	8ff\J	.
.	.	.	.	8B-\	.	8d/	.	4ff\	.
.	.	.	.	8d\J	.	8f/J	.	.	.
.	.	.	.	8B-\L	.	8d/L	.	16eeX\LL	.
.	.	.	.	.	.	.	.	16ff\	.
.	.	.	.	8d\	.	8f/	.	16gg\	.
.	.	.	.	.	.	.	.	16ff\JJ	.
.	.	.	.	8B-\	.	8d/	.	16ee-\LL	.
.	.	.	.	.	.	.	.	16dd\	.
.	.	.	.	8d\J	.	8f/J	.	16cc\	.
.	.	.	.	.	.	.	.	16b-\JJ	.
=12	=12	=12	=12	=12	=12	=12	=12	=12	=12
00r	.	00r	.	8An\L	.	8c/L	.	8ff\L	.
.	.	.	.	8c\	.	8f/	.	8ee-\J	.
.	.	.	.	8A\	.	8c/	.	4ee-\	.
.	.	.	.	8c\J	.	8f/J	.	.	.
.	.	.	.	8A\L	.	8c/L	.	16ccc\LL	.
.	.	.	.	.	.	.	.	16bb-\	.
!	!	!	!	!	!	!	!	!LO:SIC:v:s=16aan\	!
.	.	.	.	8c\	.	8f/	.	16aa-\	.
.	.	.	.	.	.	.	.	16gg\JJ	.
.	.	.	.	8A\	.	8c/	.	16ff\LL	.
.	.	.	.	.	.	.	.	16ee-\	.
.	.	.	.	8c\J	.	8f/J	.	16dd\	.
.	.	.	.	.	.	.	.	16cc\JJ	.
=13	=13	=13	=13	=13	=13	=13	=13	=13	=13
.	.	.	.	8B-\L	.	8d/L	.	8ee-\L	.
.	.	.	.	8d\	.	8f/	.	8dd\J	.
.	.	.	.	8B-\	.	8d/	.	4dd\	.
.	.	.	.	8d\J	.	8f/J	.	.	.
!	!	!	!	!	!	!	!	!LO:LB:g=original	!
.	.	.	.	8B-\L	.	8d/L	.	16b-\LL	.
.	.	.	.	.	.	.	.	16cc\	.
.	.	.	.	8d\	.	8f/	.	16dd\	.
.	.	.	.	.	.	.	.	16ee-\JJ	.
.	.	.	.	8B-\	.	8d/	.	16ff\LL	.
.	.	.	.	.	.	.	.	16gg\	.
.	.	.	.	8d\J	.	8f/J	.	16aa-\	.
.	.	.	.	.	.	.	.	16bb-\JJ	.
=14	=14	=14	=14	=14	=14	=14	=14	=14	=14
.	.	.	.	8B-\L	.	8e-/L	.	8bb-\L	.
.	.	.	.	8e-\	.	8g/	.	8gg\J	.
.	.	.	.	8B-\	.	8e-/	.	4gg\	.
.	.	.	.	8e-\J	.	8g/J	.	.	.
.	.	.	.	8B-\L	.	8e-/L	.	16gg\LL	.
.	.	.	.	.	.	.	.	16aa-\	.
.	.	.	.	8e-\	.	8g/	.	16bb-\	.
.	.	.	.	.	.	.	.	16aa-\JJ	.
.	.	.	.	8B-\	.	8e-/	.	16bb-\LL	.
.	.	.	.	.	.	.	.	16gg\	.
.	.	.	.	8e-\J	.	8g/J	.	16ff\	.
.	.	.	.	.	.	.	.	16ee-\JJ	.
*	*	*	*	*	*	*Xtremolo	*	*	*
!	!	!	!	!	!	!LO:LB:g=original	!	!	!
=15	=15	=15	=15	=15	=15	=15	=15	=15	=15
.	.	.	.	8G\L	.	8B-/L	.	16dd\LL	.
.	.	.	.	.	.	.	.	16ee-\	.
.	.	.	.	8B-\	.	8d/	.	16ff\	.
.	.	.	.	.	.	.	.	16ee-\JJ	.
.	.	.	.	8G\	.	8B-/	.	16ff\LL	.
.	.	.	.	.	.	.	.	16dd\	.
.	.	.	.	8B-\J	.	8d/J	.	16cc\	.
.	.	.	.	.	.	.	.	16b-\JJ	.
*	*	*	*	*Xtremolo	*	*	*	*2\right	*
.	.	.	.	8F\L	.	8c/L	.	2ccT\	.
.	.	.	.	8B-\	.	8e-/	.	.	.
.	.	.	.	8F\	.	8c/	.	.	.
.	.	.	.	8An\J	.	8e-/J	.	.	.
=16	=16	=16	=16	=16	=16	=16	=16	=16	=16
4B-/	.	4b-\	.	4B-\	.	4d/	.	4b-\	.
4r	.	4r	.	4r	.	8ee-\L	.	8gg\L	.
.	.	.	.	.	.	8ee-\J	.	8gg\J	.
4r	.	4r	.	4r	.	16ee-\LL	.	16gg\LL	.
.	.	.	.	.	.	16dd\	.	16ff\	.
.	.	.	.	.	.	16cc\	.	16ee-\	.
.	.	.	.	.	.	16b-\JJ	.	16dd\JJ	.
!	!	!	!	!	!	!	!	!LO:LB:g=original	!
4f\	.	4f\	.	4F\	.	16dd\LL	.	16ff\LL	.
.	.	.	.	.	.	16cc\	.	16ee-\	.
.	.	.	.	.	.	16b-\	.	16dd\	.
!	!	!	!	!	!	!LO:TX:t=P:problem:♮ above	!	!	!
.	.	.	.	.	.	16a\JJ	.	16cc\JJ	.
=17	=17	=17	=17	=17	=17	=17	=17	=17	=17
4B-/	.	4b-\	.	4B-\	.	4b-\	.	4b-\	.
4r	.	4r	.	4r	.	8ee-\L	.	8gg\L	.
.	.	.	.	.	.	8ee-\J	.	8gg\J	.
4r	.	4r	.	4r	.	16ee-\LL	.	16gg\LL	.
.	.	.	.	.	.	16dd\	.	16ff\	.
.	.	.	.	.	.	16cc\	.	16ee-\	.
.	.	.	.	.	.	16b-\JJ	.	16dd\JJ	.
4f\	.	4f\	.	4F\	.	16dd\LL	.	16ff\LL	.
.	.	.	.	.	.	16cc\	.	16ee-\	.
.	.	.	.	.	.	16b-\	.	16dd\	.
.	.	.	.	.	.	16a\JJ	.	16cc\JJ	.
!	!	!LO:LB:g=original	!	!	!	!	!	!	!
=18	=18	=18	=18	=18	=18	=18	=18	=18	=18
8.B-/L	.	8.b-\L	.	8.B-\L	.	8.b-\L	.	8.dd\L	.
16B-/K	.	16b-\K	.	16B-\K	.	16b-\K	.	16dd\K	.
8.B-/	.	8.b-\	.	8.G\	.	8.dd\	.	8.bb-\	.
16B-/Jk	.	16b-\Jk	.	16G\Jk	.	16dd\Jk	.	16bb-\Jk	.
!LO:TX:t=P:problem:mixed beam	!	!	!	!	!	!	!	!	!
8.B-/L	.	8.b-\L	.	8.E-\L	.	8.cc\L	.	8.bb-\L	.
16B-/K	.	16b-\K	.	16E-\K	.	16cc\K	.	16bb-\K	.
8.f\	.	8.f\	.	8.F\	.	8.cc\	.	8.aa\	.
16f\Jk	.	16f\Jk	.	16F\Jk	.	16cc\Jk	.	16aa\Jk	.
!LO:LB:g=original	!	!	!	!	!	!LO:LB:g=original	!	!	!
=19	=19	=19	=19	=19	=19	=19	=19	=19	=19
8.B-/L	.	8.b-\L	.	8.B-\L	.	8.dd\L	.	8.bb-\L	.
16B-/K	.	16b-\K	.	16B-\K	.	16dd\K	.	16bb-\K	.
8.B-/	.	8.b-\	.	8.G\	.	8.dd\	.	8.bb-\	.
16B-/Jk	.	16b-\Jk	.	16G\Jk	.	16dd\Jk	.	16bb-\Jk	.
!LO:TX:t=P:problem:mixed beam	!	!	!	!LO:LB:g=original	!	!	!	!	!
8.B-/L	.	8.b-\L	.	8.E-\L	.	8.cc\L	.	8.bb-\L	.
16B-/K	.	16b-\K	.	16E-\K	.	16cc\K	.	16bb-\K	.
8.f\	.	8.aX\	.	8.F\	.	8.cc\	.	8.aa\	.
16f\Jk	.	16a\Jk	.	16F\Jk	.	16cc\Jk	.	16aa\Jk	.
!	!	!	!	!	!	!	!	!LO:LB:g=original	!
=20	=20	=20	=20	=20	=20	=20	=20	=20	=20
4B-/	.	4b-\	.	4BB-/	.	4dd\	.	4bb-\	.
8r	.	8r	.	8r	.	8r	.	8r	.
16r	.	16r	.	16r	.	16r	.	16r	.
16B-/	.	16b-\	.	16B-\	.	16dd\	.	16bb-\	.
!LO:TX:b:t=20	!	!LO:TX:b:t=20	!	!LO:TX:b:t=20	!	!LO:TX:b:t=20	!	!LO:TX:b:t=20	!
4B-/	.	4b-\	.	4BB-/	.	4dd\	.	4bb-\	.
=:!|!:	=:!|!:	=:!|!:	=:!|!:	=:!|!:	=:!|!:	=:!|!:	=:!|!:	=:!|!:	=:!|!:
*>B	*	*>B	*	*>B	*	*>B	*	*>B	*
!	!	!	!	!	!	!	!	!LO:TX:t=P:problem:nieprawidłowe wyświetlanie kreski taktowej przy nrze 21	!
4r	.	4r	.	4r	.	4r	.	4b-\	.
=21	=21	=21	=21	=21	=21	=21	=21	=21	=21
*	*	*2\right	*	*Xtuplet	*	*2\right	*	*	*
!LO:SIC:v:s=2G#/:t=lub 2B	!	!	!	!	!	!	!	!	!
2B-/	.	2f\	.	12GG/L	.	2bX\	.	2dd\	.
.	.	.	.	12BBn/	.	.	.	.	.
.	.	.	.	12D/J	.	.	.	.	.
.	.	.	.	12G\L	.	.	.	.	.
.	.	.	.	12G\	.	.	.	.	.
.	.	.	.	12G\J	.	.	.	.	.
*2\right	*	*	*	*	*	*	*	*	*
2e-\	.	2g\	.	12E-\L	.	2cc\	.	2ee-\	.
.	.	.	.	12G\	.	.	.	.	.
.	.	.	.	12F\J	.	.	.	.	.
.	.	.	.	12E-\L	.	.	.	.	.
.	.	.	.	12D\	.	.	.	.	.
.	.	.	.	12C\J	.	.	.	.	.
=22	=22	=22	=22	=22	=22	=22	=22	=22	=22
!LO:SIC:v:s=2G#/:t=lub 2B	!	!	!	!	!	!	!	!LO:SIC:v:s=12bn\L	!
!	!	!	!	!	!	!	!	!LO:TUP:a	!
!	!	!	!	!	!	!	!	!LO:TX:t=P:problem:klamra łukowa	!
2B-/	.	2f\	.	2BBn/	.	2dd\	.	12b-\L	.
.	.	.	.	.	.	.	.	12dd\	.
.	.	.	.	.	.	.	.	12ff\J	.
*	*	*	*	*	*	*	*	*Xtuplet	*
.	.	.	.	.	.	.	.	12ff\L	.
.	.	.	.	.	.	.	.	12ff\	.
.	.	.	.	.	.	.	.	12ff\J	.
2G/	.	2e-\	.	2C/	.	2ee-\	.	12ee-\L	.
.	.	.	.	.	.	.	.	12gg\	.
.	.	.	.	.	.	.	.	12ff\J	.
.	.	.	.	.	.	.	.	12ee-\L	.
.	.	.	.	.	.	.	.	12dd\	.
.	.	.	.	.	.	.	.	12cc\J	.
!	!	!LO:LB:g=original	!	!LO:LB:g=original	!	!	!	!	!
=23	=23	=23	=23	=23	=23	=23	=23	=23	=23
00r	.	00r	.	12FF/L	.	2a\	.	2cc\	.
!	!	!	!	!LO:SIC:v:s=12AAn/	!	!	!	!	!
.	.	.	.	12AA-/	.	.	.	.	.
.	.	.	.	12C/J	.	.	.	.	.
.	.	.	.	12F\L	.	.	.	.	.
.	.	.	.	12F\	.	.	.	.	.
.	.	.	.	12F\J	.	.	.	.	.
.	.	.	.	12D\L	.	2b-X\	.	2dd\	.
.	.	.	.	12F\	.	.	.	.	.
.	.	.	.	12E-\J	.	.	.	.	.
.	.	.	.	12D/L	.	.	.	.	.
.	.	.	.	12C/	.	.	.	.	.
.	.	.	.	12BB-X/J	.	.	.	.	.
!	!	!	!	!	!	!LO:LB:g=original	!	!	!
=24	=24	=24	=24	=24	=24	=24	=24	=24	=24
*	*	*	*	*	*	*	*	*tuplet	*
!	!	!	!	!LO:SIC:v:s=2AAn	!	!	!	!LO:TX:t=P:problem:klamra łukowa	!
!	!	!	!	!	!	!	!	!LO:TUP:a	!
.	.	.	.	2AA-/	.	2cc\	.	12a\L	.
.	.	.	.	.	.	.	.	12cc\	.
.	.	.	.	.	.	.	.	12ee-\J	.
*	*	*	*	*	*	*	*	*Xtuplet	*
.	.	.	.	.	.	.	.	12ee-\L	.
.	.	.	.	.	.	.	.	12ee-\	.
.	.	.	.	.	.	.	.	12ee-\J	.
.	.	.	.	2BB-/	.	2dd\	.	12dd\L	.
.	.	.	.	.	.	.	.	12ff\	.
.	.	.	.	.	.	.	.	12ee-\J	.
.	.	.	.	.	.	.	.	12dd\L	.
.	.	.	.	.	.	.	.	12cc\	.
.	.	.	.	.	.	.	.	12b-\J	.
=25	=25	=25	=25	=25	=25	=25	=25	=25	=25
.	.	.	.	12BB-/L	.	2ff\	.	2aa-X\	.
.	.	.	.	12D/	.	.	.	.	.
.	.	.	.	12F/J	.	.	.	.	.
.	.	.	.	12B-\L	.	.	.	.	.
.	.	.	.	12B-\	.	.	.	.	.
.	.	.	.	12B-\J	.	.	.	.	.
.	.	.	.	12G\L	.	2ee-\	.	2gg\	.
.	.	.	.	12B-\	.	.	.	.	.
.	.	.	.	12An\J	.	.	.	.	.
.	.	.	.	12G\L	.	.	.	.	.
.	.	.	.	12F\	.	.	.	.	.
.	.	.	.	12E-\J	.	.	.	.	.
=26	=26	=26	=26	=26	=26	=26	=26	=26	=26
.	.	.	.	2D\	.	2dd\	.	12dd\L	.
.	.	.	.	.	.	.	.	12ff\	.
.	.	.	.	.	.	.	.	12aa-\J	.
.	.	.	.	.	.	.	.	12aa-\L	.
.	.	.	.	.	.	.	.	12aa-\	.
.	.	.	.	.	.	.	.	12aa-\J	.
.	.	.	.	2E-\	.	2ee-\	.	12gg\L	.
.	.	.	.	.	.	.	.	12bb-\	.
.	.	.	.	.	.	.	.	12aa-\J	.
.	.	.	.	.	.	.	.	12gg\L	.
.	.	.	.	.	.	.	.	12ff\	.
.	.	.	.	.	.	.	.	12ee-\J	.
!	!	!	!	!LO:LB:g=original	!	!	!	!	!
=27	=27	=27	=27	=27	=27	=27	=27	=27	=27
*	*	*	*	*	*	*Xtuplet	*	*	*
4B-/	.	4f\	.	12B-\L	.	12dd\L	.	12ff\L	.
.	.	.	.	12B-\	.	12dd\	.	12ff\	.
.	.	.	.	12B-\J	.	12dd\J	.	12ff\J	.
4e-\	.	4g\	.	12An\L	.	12ee-\L	.	12gg\L	.
.	.	.	.	12A\	.	12ee-\	.	12gg\	.
.	.	.	.	12A\J	.	12ee-\J	.	12gg\J	.
4B-/	.	4f\	.	12B-\L	.	12dd\L	.	12ff\L	.
.	.	.	.	12B-\	.	12dd\	.	12ff\	.
.	.	.	.	12B-\J	.	12dd\J	.	12ff\J	.
!	!	!	!	!	!	!	!	!LO:LB:g=original	!
4e-\	.	4g\	.	12A\L	.	12ee-\L	.	12gg-X\L	.
.	.	.	.	12A\	.	12ee-\	.	12gg-\	.
.	.	.	.	12A\J	.	12ee-\J	.	12gg-\J	.
=28	=28	=28	=28	=28	=28	=28	=28	=28	=28
4B-;/	.	4f;\	.	4B-\	.	4dd\	.	4ff\	.
8r	.	8r	.	8r	.	8r	.	8r	.
16r	.	16r	.	16r	.	16r	.	16r	.
!LO:LB:g=original	!	!	!	!	!	!	!	!	!
16B-/	.	16f\	.	16B-\	.	16dd\	.	16bb-\	.
4B-;/	.	4f;\	.	4BB-;/	.	4dd;\	.	4bb-;;\	.
4r	.	4r	.	4r	.	4r	.	4b-\	.
=29	=29	=29	=29	=29	=29	=29	=29	=29	=29
4E-;/	.	4e-;\	.	4EE-;/	.	4g;/	.	4ee-;\	.
8r	.	8r	.	8r	.	8r	.	8r	.
16r	.	16r	.	16r	.	16r	.	16r	.
16G/	.	16e-\	.	16E-\	.	16g/	.	16ee-\	.
!	!	!	!	!	!	!LO:LB:g=original	!	!	!
4G;/	.	4e-;\	.	4E-;\	.	4g;/	.	4ee-;\	.
4r	.	4r	.	4r	.	8r	.	8r	.
.	.	.	.	.	.	16r	.	16r	.
.	.	.	.	.	.	16b-\	.	16gg\	.
=30	=30	=30	=30	=30	=30	=30	=30	=30	=30
1r	.	1r	.	1r	.	4b-\	.	4gg\	.
.	.	.	.	.	.	4g\	.	4ee-\	.
.	.	.	.	.	.	4a-\	.	4ff\	.
.	.	.	.	.	.	4g\	.	4ee-\	.
=31	=31	=31	=31	=31	=31	=31	=31	=31	=31
2r	.	2r	.	2r	.	4f/	.	4dd\	.
.	.	.	.	.	.	4r	.	4r	.
!	!	!	!	!LO:LB:g=original	!	!	!	!	!
4B-;/	.	4f;\	.	4BB-;/	.	4dd;\	.	4bb-;;\	.
8r	.	8r	.	8r	.	8r	.	8r	.
16r	.	16r	.	16r	.	16r	.	16r	.
!	!	!	!	!	!	!	!	!LO:LB:g=original	!
16B-/	.	16f\	.	16BB-/	.	16dd\	.	16bb-\	.
=32	=32	=32	=32	=32	=32	=32	=32	=32	=32
4B-;/	.	4f;\	.	4BBB-;/	.	4dd;\	.	4bb-;\	.
8r	.	8r	.	4r	.	8r	.	8r	.
16r	.	16r	.	.	.	16r	.	16r	.
!	!	!LO:LB:g=original	!	!	!	!	!	!	!
16f\	.	16a-\	.	.	.	16ff\	.	16aa-\	.
4f\	.	4a-\	.	2r	.	4ff\	.	4aa-\	.
4e-\	.	4g\	.	.	.	4ee-\	.	4gg\	.
=33	=33	=33	=33	=33	=33	=33	=33	=33	=33
4f\	.	4a-\	.	2r	.	4ff\	.	4aa-\	.
4B-/	.	4f\	.	.	.	4dd\	.	4ff\	.
4e-\	.	4g\	.	4r	.	4ee-\	.	4gg\	.
8r	.	8r	.	8r	.	8r	.	8r	.
16r	.	16r	.	16r	.	16r	.	16r	.
!	!	!	!	!	!	!	!	!	!LO:DY:rj
16BB-/	.	16B-/	.	16BB-/	.	16B-/	.	16b-\	f
!LO:LB:g=original	!	!	!	!	!	!LO:LB:g=original	!	!	!
=34	=34	=34	=34	=34	=34	=34	=34	=34	=34
8.E-/L	.	8.e-\L	.	8.E-\L	.	8.e-/L	.	8.ee-\L	.
16BB-/K	.	16B-\K	.	16BB-\K	.	16B-/K	.	16b-\K	.
8.G/	.	8.g\	.	8.G\	.	8.g/	.	8.gg\	.
16E-/Jk	.	16e-\Jk	.	16E-\Jk	.	16e-/Jk	.	16ee-\Jk	.
8.E-/L	.	8.e-\L	.	8.E-\L	.	8.e-/L	.	8.ee-\L	.
16B-/K	.	16b-\K	.	16B-\K	.	16b-/K	.	16bb-\K	.
8.G/	.	8.g\	.	8.G\	.	8.g/	.	8.gg\	.
16E-/Jk	.	16e-\Jk	.	16E-\Jk	.	16e-/Jk	.	16ee-\Jk	.
=35	=35	=35	=35	=35	=35	=35	=35	=35	=35
!	!	!	!	!LO:TX:t=P:problem:mixed beam	!	!	!	!	!
4BB-/	.	4f\	.	8.BB-/L	.	4d/	.	4ff\	.
.	.	.	.	16B-\K	.	.	.	.	.
4B-/	.	4f\	.	8.F\	.	4dd\	.	4bb-\	.
.	.	.	.	16D\Jk	.	.	.	.	.
4B-/	.	4f\	.	4BB-/	.	4dd\	.	4bb-\	.
4r	.	4r	.	4r	.	4r	.	4r	.
!	!	!	!	!LO:LB:g=original	!	!	!	!LO:LB:g=original	!
=36	=36	=36	=36	=36	=36	=36	=36	=36	=36
*	*	*	*	*tremolo	*	*tremolo	*	*	*
!	!LO:DY:rj	!	!LO:DY:rj	!	!	!	!	!	!
4G/	p	4e-\	p	8E-\L	p	8G/L	.	4b-\	.
.	.	.	.	8G\	.	8B-/	.	.	.
4r	.	4r	.	8E-\	.	8G/	.	4b-\	.
.	.	.	.	8G\J	.	8B-/J	.	.	.
4r	.	4r	.	8E-\L	.	8G/L	.	8b-\L	.
.	.	.	.	8G\	.	8B-/	.	8gg\	.
4G/	.	4e-\	.	8E-\	.	8G/	.	8ff\	.
.	.	.	.	8G\J	.	8B-/J	.	8ee-\J	.
=37	=37	=37	=37	=37	=37	=37	=37	=37	=37
4B-/	.	4f\	.	8F\L	.	8A-X/L	.	16ff\LL	.
.	.	.	.	.	.	.	.	16ee-\	.
.	.	.	.	8A-\	.	8B-/	.	16dd\	.
.	.	.	.	.	.	.	.	16ee-\JJ	.
4r	.	4r	.	8F\	.	8A-/	.	4dd\	.
.	.	.	.	8A-\J	.	8B-/J	.	.	.
4r	.	4r	.	8F\L	.	8A-/L	.	16dd\LL	.
.	.	.	.	.	.	.	.	16ee-\	.
.	.	.	.	8A-\	.	8B-/	.	16dd\	.
.	.	.	.	.	.	.	.	16ee-\JJ	.
!	!	!	!	!	!	!	!	!LO:PB:g=original	!
4B-/	.	4f\	.	8F\	.	8A-/	.	16ff\LL	.
.	.	.	.	.	.	.	.	16gg\	.
.	.	.	.	8A-\J	.	8B-/J	.	16ff\	.
.	.	.	.	.	.	.	.	16gg\JJ	.
=38	=38	=38	=38	=38	=38	=38	=38	=38	=38
4B-/	.	4f\	.	8D\L	.	8F/L	.	4aa-\	.
.	.	.	.	8F\	.	8B-/	.	.	.
!	!	!LO:LB:g=original	!	!	!	!	!	!	!
4r	.	4r	.	8D\	.	8F/	.	16aa-\LL	.
.	.	.	.	.	.	.	.	16gg\	.
.	.	.	.	8F\J	.	8B-/J	.	16ff\	.
.	.	.	.	.	.	.	.	16gg\JJ	.
4r	.	4r	.	8D\L	.	8F/L	.	16aa-\LL	.
.	.	.	.	.	.	.	.	16gg\	.
.	.	.	.	8F\	.	8B-/	.	16ff\	.
.	.	.	.	.	.	.	.	16ee-\JJ	.
4B-/	.	4f\	.	8D\	.	8F/	.	16dd\LL	.
.	.	.	.	.	.	.	.	16ccc\	.
.	.	.	.	8F\J	.	8B-/J	.	16bb-\	.
.	.	.	.	.	.	.	.	16aa-\JJ	.
=39	=39	=39	=39	=39	=39	=39	=39	=39	=39
4G/	.	4e-\	.	8E-\L	.	8G/L	.	16bb-\LL	.
.	.	.	.	.	.	.	.	16aa-\	.
.	.	.	.	8G\	.	8B-/	.	16gg\	.
.	.	.	.	.	.	.	.	16aa-\JJ	.
4r	.	4r	.	8E-\	.	8G/	.	4gg\	.
.	.	.	.	8G\J	.	8B-/J	.	.	.
!	!	!	!	!	!	!LO:LB:g=original	!	!	!
4r	.	4r	.	8E-\L	.	8G/L	.	16ff\LL	.
.	.	.	.	.	.	.	.	16ee-\	.
.	.	.	.	8G\	.	8B-/	.	16dd\	.
.	.	.	.	.	.	.	.	16ee-\JJ	.
4E-/	.	4e-\	.	8E-\	.	8G/	.	16ff\LL	.
.	.	.	.	.	.	.	.	16ee-\	.
.	.	.	.	8G\J	.	8B-/J	.	16dd\	.
.	.	.	.	.	.	.	.	16ee-\JJ	.
!	!	!	!	!	!	!	!	!LO:LB:g=original	!
=40	=40	=40	=40	=40	=40	=40	=40	=40	=40
4E-/	.	4e-\	.	8E-\L	.	8A-/L	.	8ee-\L	.
.	.	.	.	8A-\	.	8B-/	.	8cc\J	.
4r	.	4r	.	8E-\	.	8A-/	.	4cc\	.
.	.	.	.	8A-\J	.	8B-/J	.	.	.
4r	.	4r	.	8E-\L	.	8A-/L	.	16r	.
.	.	.	.	.	.	.	.	16ee-\LL	.
.	.	.	.	8A-\	.	8B-/	.	16dd\	.
.	.	.	.	.	.	.	.	16ee-\JJ	.
!LO:LB:g=original	!	!	!	!	!	!	!	!	!
4E-/	.	4e-\	.	8E-\	.	8A-/	.	16ff\LL	.
.	.	.	.	.	.	.	.	16ee-\	.
.	.	.	.	8A-\J	.	8B-/J	.	16dd\	.
.	.	.	.	.	.	.	.	16cc\JJ	.
=41	=41	=41	=41	=41	=41	=41	=41	=41	=41
4E-/	.	4e-\	.	8E-\L	.	8G/L	.	8cc\L	.
.	.	.	.	8G\	.	8B-/	.	8b-\J	.
4r	.	4r	.	8E-\	.	8G/	.	4b-\	.
.	.	.	.	8G\J	.	8B-/J	.	.	.
4r	.	4r	.	8E-\L	.	8G/L	.	16aa\LL	.
.	.	.	.	.	.	.	.	16bb-\	.
.	.	.	.	8G\	.	8B-/	.	16ccc\	.
.	.	.	.	.	.	.	.	16bb-\JJ	.
4E-/	.	4e-\	.	8E-\	.	8G/	.	16aa-X\LL	.
.	.	.	.	.	.	.	.	16gg\	.
.	.	.	.	8G\J	.	8B-/J	.	16ff\	.
.	.	.	.	.	.	.	.	16ee-\JJ	.
!	!	!	!	!LO:LB:g=original	!	!	!	!	!
=42	=42	=42	=42	=42	=42	=42	=42	=42	=42
4B-/	.	4f\	.	8D\L	.	8F/L	.	8bb-\L	.
.	.	.	.	8F\	.	8B-/	.	8aa-\J	.
4r	.	4r	.	8D\	.	8F/	.	4aa-\	.
.	.	.	.	8F\J	.	8B-/J	.	.	.
4r	.	4r	.	8D\L	.	8F/L	.	16b-\LL	.
.	.	.	.	.	.	.	.	16cc\	.
.	.	.	.	8F\	.	8B-/	.	16dd\	.
.	.	.	.	.	.	.	.	16ee-\JJ	.
!	!	!	!	!	!	!	!	!LO:LB:g=original	!
4B-/	.	4f\	.	8D\	.	8F/	.	16ff\LL	.
.	.	.	.	.	.	.	.	16gg\	.
.	.	.	.	8F\J	.	8B-/J	.	16aa-\	.
.	.	.	.	.	.	.	.	16ff\JJ	.
=43	=43	=43	=43	=43	=43	=43	=43	=43	=43
4G/	.	4e-\	.	8B-\L	.	8e-/L	.	16gg\LL	.
.	.	.	.	.	.	.	.	16aa-\	.
.	.	.	.	8e-\	.	8g/	.	16bb-\	.
.	.	.	.	.	.	.	.	16aa-\JJ	.
4r	.	4r	.	8B-\	.	8e-/	.	16bb-\LL	.
.	.	.	.	.	.	.	.	16gg\	.
.	.	.	.	8e-\J	.	8g/J	.	16ff\	.
.	.	.	.	.	.	.	.	16ee-\JJ	.
4G/	.	4e-\	.	8B-\L	.	8e-/L	.	2ffT\	.
.	.	.	.	8e-\	.	8g/	.	.	.
4B-/	.	4f\	.	8B-\	.	8e-/	.	.	.
.	.	.	.	8e-\J	.	8g/J	.	.	.
*	*	*	*	*	*	*Xtremolo	*	*	*
=44	=44	=44	=44	=44	=44	=44	=44	=44	=44
4G/	.	4e-\	.	4e-\	.	4e-/	.	4ee-\	.
4r	.	4r	.	4r	.	8aa-\L	.	8ccc\L	.
.	.	.	.	.	.	8aa-\J	.	8ccc\J	.
4r	.	4r	.	4r	.	16aa-\LL	.	16ccc\LL	.
.	.	.	.	.	.	16gg\	.	16bb-\	.
.	.	.	.	.	.	16ff\	.	16aa-\	.
.	.	.	.	.	.	16ee-\JJ	.	16gg\JJ	.
!	!	!	!	!	!	!LO:LB:g=original	!	!	!
8B-/L	.	8f\L	.	4B-\	.	16gg\LL	.	16bb-\LL	.
.	.	.	.	.	.	16ff\	.	16aa-\	.
8B-/J	.	8f\J	.	.	.	16ee-\	.	16gg\	.
.	.	.	.	.	.	16dd\JJ	.	16ff\JJ	.
!	!	!LO:LB:g=original	!	!	!	!	!	!	!
=45	=45	=45	=45	=45	=45	=45	=45	=45	=45
4G/	.	4e-\	.	4E-\	.	4ee-\	.	4gg\	.
!	!	!	!	!	!	!	!	!LO:LB:g=original	!
4r	.	4r	.	4r	.	8aa-\L	.	8ccc\L	.
.	.	.	.	.	.	8aa-\J	.	8ccc\J	.
4r	.	4r	.	4r	.	16aa-\LL	.	16ccc\LL	.
.	.	.	.	.	.	16gg\	.	16bb-\	.
.	.	.	.	.	.	16ff\	.	16aa-\	.
.	.	.	.	.	.	16ee-\JJ	.	16gg\JJ	.
8B-/L	.	8f\L	.	4BB-/	.	16gg\LL	.	16bb-\LL	.
.	.	.	.	.	.	16ff\	.	16aa-\	.
8B-/J	.	8f\J	.	.	.	16ee-\	.	16gg\	.
.	.	.	.	.	.	16dd\JJ	.	16ff\JJ	.
=46	=46	=46	=46	=46	=46	=46	=46	=46	=46
8.E-/L	.	8.e-\L	.	8.E-/L	.	8.ee-\L	.	8.gg\L	.
16E-/K	.	16e-\K	.	16E-/K	.	16ee-\K	.	16gg\K	.
8.E-/	.	8.e-\	.	8.C/	.	8.ee-\	.	8.gg\	.
16E-/Jk	.	16e-\Jk	.	16C/Jk	.	16ee-\Jk	.	16gg\Jk	.
!LO:LB:g=original	!	!	!	!	!	!	!	!	!
8.E-/L	.	8.f\L	.	8.AA-/L	.	8.ee-\L	.	8.ff\L	.
16E-/K	.	16f\K	.	16AA-/K	.	16ee-\K	.	16ff\K	.
8.B-/	.	8.f\	.	8.BB-/	.	8.dd\	.	8.ff\	.
16B-/Jk	.	16f\Jk	.	16BB-/Jk	.	16dd\Jk	.	16ff\Jk	.
=47	=47	=47	=47	=47	=47	=47	=47	=47	=47
!	!	!	!	!LO:TX:t=P:problem:takt zapisany repetycją	!	!	!	!	!
8.E-/L	.	8.e-\L	.	8.E-/Lyy	.	8.ee-\L	.	8.gg\L	.
16E-/K	.	16e-\K	.	16E-/Kyy	.	16ee-\K	.	16gg\K	.
8.E-/	.	8.e-\	.	8.C/yy	.	8.ee-\	.	8.gg\	.
16E-/Jk	.	16e-\Jk	.	16C/Jkyy	.	16ee-\Jk	.	16gg\Jk	.
8.E-/L	.	8.e-\L	.	8.AA-/Lyy	.	8.ee-\L	.	8.ff\L	.
16E-/K	.	16e-\K	.	16AA-/Kyy	.	16ee-\K	.	16ff\K	.
8.B-/	.	8.f\	.	8.BB-/yy	.	8.dd\	.	8.ff\	.
16B-/Jk	.	16f\Jk	.	16BB-/Jkyy	.	16dd\Jk	.	16ff\Jk	.
!	!	!	!	!	!	!	!	!LO:LB:g=original	!
=48	=48	=48	=48	=48	=48	=48	=48	=48	=48
4G/	.	4e-\	.	4E-\	.	4ee-\	.	4gg\	.
8r	.	8r	.	8r	.	8r	.	8r	.
16r	.	16r	.	16r	.	16r	.	16r	.
!	!	!	!	!LO:LB:g=original	!	!	!	!	!
16G/	.	16e-\	.	16E-\	.	16g/	.	16ee-\	.
!LO:TX:b:t=28	!	!LO:TX:b:t=28	!	!LO:TX:b:t=28	!	!LO:TX:b:t=28	!	!LO:TX:b:t=28	!
4G/	.	4e-\	.	4EE-/	.	4g/	.	4ee-\	.
4ryy	.	4ryy	.	4r	.	4ryy	.	4ryy	.
=:|!	=:|!	=:|!	=:|!	=:|!	=:|!	=:|!	=:|!	=:|!	=:|!
*-	*-	*-	*-	*-	*-	*-	*-	*-	*-
!!!system-decoration: [(s1,s2,s3)][(s4,s5)]
!!!ENC: Krzysztof Stępień
!!!END: 2021-06-15
!!!RDF**dynam: f = fo
!!!RDF**kern: > = above
!!!RDF**kern: < = below
!!!EED: Andrzej Borzym
!!!EST: 2021-06-20
